X: 1
T: Ingers Brudvals
C: Pelle Svensson, Tr\"on\"o
R: waltz
S: Fiddle Hell Online 2020-11-4
Z: 2020 John Chambers <jc:trillian.mit.edu>
M: 3/4
L: 1/8
K: D
A,2 |\
"D"D4 F2 | A4 d2 | "G"B3 G B2 | "D"A4 F2 |\
"Bm"D3 E F2 | "Em"G3 F ED | "A"C3 E C2 | A,4 A,2 ||
"D"D4 F2 | A4 d2 | "G"B3 G B2 | "D"A4 F2 |\
"Bm"D3 E F2 | "Em"G3 F ED | "A"C3 E C2 | "D"D4 :|
|: A2 |\
"D"(f3 e) d2 | (f2 e2) d2 | "A"e4 c2 | A3 B c2 |\
"Bm"d3 c B2 | d2 c2 B2 | "F#m"c4 A2 | F4 F2 ||
"G"G3 A B2 | "A"A2 c2 e2 | "D"d2 f2 a2 | "G"g2 b2 g2 |\
"D"f3 e d2 | "A"c2 B2 c2 | "D"d3 d d2 | d4 :|
